X:747
T:Anna-Wendy's Jig
C:Nigel Gatherer
Z:Nigel Gatherer
M:6/8
L:1/8
K:A
z | EFA BAB | cBA BAF | EFA BAB | cBA f2e |
    faf ecA | BAB cAF | EFA BAB | cAA A2 :|
e | fee aec | BAB Ace | fee aec | Ace f2e |
    faf ecA | BAB cAF | EFA BAB | cAA A2 :|
